flaticon/medical/pill-1.svg

<svg xmlns="http://www.w3.org/2000/svg" width="32" height="32" viewBox="0 0 24 24">
    <path d="M 22.015625 1.984375 C 20.738281 0.703125 19.03125 0 17.207031 0 C 15.386719 0 13.679688 0.703125 12.402344 1.984375 L 7.3125 7.074219 L 7.308594 7.074219 L 1.988281 12.398438 C -0.664062 15.046875 -0.664062 19.359375 1.988281 22.011719 C 3.3125 23.335938 5.054688 24 6.796875 24 C 8.539062 24 10.277344 23.335938 11.605469 22.011719 L 22.015625 11.597656 C 23.296875 10.320312 24 8.613281 24 6.792969 C 24 4.96875 23.296875 3.261719 22.015625 1.984375 Z M 21.449219 11.035156 L 11.039062 21.445312 C 8.699219 23.785156 4.894531 23.785156 2.554688 21.445312 C 0.214844 19.105469 0.214844 15.300781 2.554688 12.960938 L 7.59375 7.921875 L 9.65625 9.988281 C 9.734375 10.0625 9.835938 10.105469 9.941406 10.105469 C 10.042969 10.105469 10.144531 10.0625 10.222656 9.988281 C 10.378906 9.828125 10.378906 9.578125 10.222656 9.421875 L 8.160156 7.355469 L 12.96875 2.550781 C 14.09375 1.421875 15.601562 0.800781 17.207031 0.800781 C 18.816406 0.800781 20.324219 1.421875 21.449219 2.550781 C 22.578125 3.675781 23.199219 5.183594 23.199219 6.792969 C 23.199219 8.398438 22.578125 9.90625 21.449219 11.035156 Z M 21.449219 11.035156"/>
    <path d="M20.601562 3.398438C20.445312 3.242188 20.191406 3.242188 20.035156 3.398438 19.878906 3.554688 19.878906 3.808594 20.035156 3.964844 20.789062 4.714844 21.199219 5.71875 21.199219 6.792969 21.199219 7.863281 20.789062 8.867188 20.035156 9.621094L17.140625 12.515625C16.984375 12.671875 16.984375 12.921875 17.140625 13.078125 17.21875 13.15625 17.324219 13.195312 17.425781 13.195312 17.527344 13.195312 17.628906 13.15625 17.707031 13.078125L20.601562 10.183594C21.503906 9.285156 22 8.078125 22 6.792969 22 5.503906 21.503906 4.300781 20.601562 3.398438zM13.109375 16.550781C13.015625 16.671875 12.902344 16.796875 12.765625 16.9375 11.875 17.832031 10.445312 18.03125 9.375 17.402344 7.578125 16.351562 5.882812 16.667969 4.84375 18.253906 4.722656 18.4375 4.773438 18.6875 4.960938 18.808594 5.027344 18.851562 5.101562 18.875 5.179688 18.875 5.308594 18.875 5.4375 18.808594 5.511719 18.691406 6.59375 17.042969 8.144531 17.609375 8.96875 18.09375 10.375 18.914062 12.167969 18.671875 13.332031 17.5 13.492188 17.339844 13.625 17.1875 13.742188 17.042969 13.875 16.867188 13.84375 16.617188 13.671875 16.480469 13.496094 16.34375 13.246094 16.375 13.109375 16.550781zM6.375 11.914062C6.769531 11.546875 7.144531 11.203125 7.484375 10.859375 7.644531 10.699219 7.644531 10.449219 7.484375 10.292969 7.328125 10.136719 7.078125 10.136719 6.921875 10.292969 6.589844 10.625 6.21875 10.964844 5.832031 11.324219 3.746094 13.25 1.152344 15.644531 2.28125 18.828125 2.339844 18.992188 2.492188 19.09375 2.65625 19.09375 2.703125 19.09375 2.746094 19.085938 2.792969 19.070312 3 18.996094 3.109375 18.765625 3.035156 18.558594 2.082031 15.875 4.363281 13.769531 6.375 11.914062zM10.6875 7.660156L14.378906 3.964844 14.121094 3.660156 13.816406 3.398438 10.121094 7.09375C9.964844 7.25 9.964844 7.5 10.121094 7.660156 10.199219 7.734375 10.300781 7.777344 10.402344 7.777344 10.503906 7.777344 10.609375 7.734375 10.6875 7.660156zM12.792969 11.992188C12.636719 11.835938 12.386719 11.835938 12.230469 11.992188 12.070312 12.148438 12.070312 12.402344 12.230469 12.558594L15.375 15.707031C15.453125 15.785156 15.558594 15.824219 15.660156 15.824219 15.761719 15.824219 15.863281 15.785156 15.941406 15.707031 16.097656 15.550781 16.097656 15.296875 15.941406 15.140625zM12.792969 11.992188"/>
</svg>

<svg xmlns="http://www.w3.org/2000/svg" width="32" height="32" viewBox="0 0 24 24">
    <path d="M22.016 1.984A6.737 6.737 0 0 0 17.207 0c-1.82 0-3.527.703-4.805 1.984l-5.09 5.09H7.31l-5.32 5.324c-2.653 2.649-2.653 6.961 0 9.614A6.781 6.781 0 0 0 6.796 24c1.742 0 3.48-.664 4.808-1.988l10.41-10.414A6.734 6.734 0 0 0 24 6.793a6.737 6.737 0 0 0-1.984-4.809zm-.567 9.051l-10.41 10.41a6.005 6.005 0 0 1-8.484 0 6.005 6.005 0 0 1 0-8.484l5.039-5.04 2.062 2.067c.078.075.18.117.285.117a.4.4 0 0 0 .281-.684L8.16 7.356l4.809-4.804A5.943 5.943 0 0 1 17.207.8c1.61 0 3.117.62 4.242 1.75a5.945 5.945 0 0 1 1.75 4.242 5.958 5.958 0 0 1-1.75 4.242zm0 0"/>
    <path d="M20.602 3.398a.4.4 0 0 0-.567.567A3.953 3.953 0 0 1 21.2 6.793c0 1.07-.41 2.074-1.164 2.828l-2.894 2.895a.396.396 0 0 0 0 .562.405.405 0 0 0 .285.117c.101 0 .203-.039.281-.117l2.895-2.894A4.752 4.752 0 0 0 22 6.793c0-1.29-.496-2.492-1.398-3.395zm0 0M13.11 16.55a4.648 4.648 0 0 1-.344.387c-.891.895-2.32 1.094-3.391.465-1.797-1.05-3.492-.734-4.531.852a.4.4 0 0 0 .117.555.396.396 0 0 0 .55-.117c1.083-1.649 2.634-1.083 3.458-.598 1.406.82 3.199.578 4.363-.594.16-.16.293-.313.41-.457a.406.406 0 0 0-.07-.563.4.4 0 0 0-.563.07zm0 0M6.375 11.914c.395-.367.77-.71 1.11-1.055.16-.16.16-.41 0-.566a.396.396 0 0 0-.563 0c-.332.332-.703.672-1.09 1.031-2.086 1.926-4.68 4.32-3.55 7.504a.398.398 0 0 0 .511.242.402.402 0 0 0 .242-.511c-.953-2.684 1.328-4.79 3.34-6.645zm0 0M10.688 7.66l3.69-3.695-.257-.305-.305-.262-3.695 3.696a.4.4 0 0 0 .281.683.423.423 0 0 0 .286-.117zm0 0M12.793 11.992a.396.396 0 0 0-.563 0 .394.394 0 0 0 0 .567l3.145 3.148a.405.405 0 0 0 .285.117.4.4 0 0 0 .281-.684zm0 0"/>
</svg>
